X: 34
T:Tripping Upstairs
T:Tripping up the Stairs
M:6/8
L:1/8
R:Double Jig
K:D
AG[|:FAA GBB|FAd fed|cBc ABc|dfe dAG|!
FAA GBB|FAd fed|cBc ABc|1dfe dAG:|2dfe dBc|!
|:dBB fBB|fgf fed|cAA eAA|efe edc|!
dBB fBB|fgf fed|cBc ABc|1dfe dBc:|2dfe dAG|]!
